X:1
T:Queensland Whalers
M:4/4
L:1/4
K:C
 G| c3/2 B/2 c d| c G2 G/2E/2| F3/2 F/2 G G| c3 G| c3/2 B/2 c d| e c G3/2 G/2|\
 F F G A| G3 G| c3/2 B/2 c d| e c- G E| F3/2 F/2 G A| G3 G| c3/2 B/2 c d|\
 c G E G| F3/2 A/2 G B| c3||
